X:4753
T:El Mandiln
C:Trad
M:3/8
L:1/8
Q:3/8=60
K:F
C|: FFF|F2 F|F F2-|F2 C|FFF|E2 E|D C2-|C2 C :|
"estribillo"|: FFF|E2 E|D C2|C2 C-|C2 C :|
|FFF|F3|F F/F/F/G/|AAG|FFE|F3-|F3-|F3-|F3-|F3-|F3-|F3-|F2 c|
